X: 10611
T: the SOLDIER'S RETURN
Q: "Slow"
%R: march, strathspey
B: "Edinburgh Repository of Music" v.1 p.61 #1
F: http://digital.nls.uk/special-collections-of-printed-music/pageturner.cfm?id=87776133
Z: 2015 John Chambers <jc:trillian.mit.edu>
M: C
L: 1/8
K: D
d>e |\
{de}f2A>B A3d | {c}B>ABd {f}e2d>e |\
{de}f2A2 ({a}gf)(ed) | B3c d2 :|\
|: A2 |\
d>efg a3a | (ba)(gf) {f}e3A |
d>ef>g a>bag | f3g {fg}a3 A |\
d>efg a3f | bagf {f}e2d>e |\
{de}f2A2 {a}gfed | B3c {cde}d2 :|
